X:1
T:Denny, CM
T:Denny, CM
T:Josiah Booth (1852-1929)
T:Public Domain Courtesy of the Cyber Hymnal™
C:Josiah Booth (1852-1929)
Z:Public Domain
Z:Courtesy of the Cyber Hymnal™
%%score ( 1 2 ) ( 3 4 )
L:1/8
Q:1/4=113
M:4/4
K:A
V:1 treble 
V:2 treble 
V:3 bass 
V:4 bass 
V:1
 [CE]2 | [CE]2 [Ec]2 [EB]2 E2 | E2 [Ee]2 [Ed]2 [Ec]2 | [EB]2 [Ec]2 [EF]2 [^DF]2 | E6 E2 | %5
 [EA]2 (GF) [B,E]2 E2 | [Ec]2 (BA) [EG]2 E2 | [Ae]2 ([Dd][Ec]) [FB]2 B2 | [CA]6 |] %9
V:2
 x2 | x6 E2 | E2 x6 | x8 | E6 E2 | x2 D2 x E2 x | x2 ^D2 x E2 x | x6 (ED) | x6 |] %9
V:3
 [A,,E,]2 | [A,,A,]2 [A,,E,]2 [G,,D]2 G,2 | [C,A,]2 [C,A,]2 [B,,G,]2 [A,,A,]2 | %3
 [G,,D]2 [A,,C]2 [B,,B,]2 (B,A,) | [E,G,]6 E,2 | [C,E,]2 ([B,,G,][A,,A,]) [G,,B,]2 E,2 | %6
 [A,,A,]2 [F,A,]2 [E,B,]2 G,2 | [B,,A,]2 A,2 [D,A,]2 [E,G,]2 | [A,,A,]6 |] %9
V:4
 x2 | x6 (E,D,) | x8 | x6 B,,2 | x6 E,2 | x6 E,2 | x6 (E,D,) | x2 (F,E,) x4 | x6 |] %9

